X: 537
T: Dahong gongji
L: 1/8
M: 2/4
K: F
c c c f [I:setbarnb 1]| 
d c A G | 
d c c A/ G/ | 
F4 | 
D c c A/ G/ | 
c G/ F/C2 | 
c G G F/ D/ | 
C4 |]

@@@ Tune index: 9411
